X:1
T:Title
%%score 1 2
L:1/8
Q:1/4=102
M:6/8
K:Ab
V:1 treble nm="Grand Piano, Soprano"
V:2 bass nm="Choir Pad, Is It True? S. C. Kirk, 1902"
V:1
 E [Ec]2 [Ec] [Ec]2 | [DB][DB][CA]- [CA]2- [CA]/ z/ | [CA] [DA]2 [DB] [DA]2 | %3
w: By~Emily~Devine~Wilson,~1902 * * *|||
 [DF] [CE]2- [CE]2- [CE]/ z/ | [CE] [Ec]2 [Ec] [Ec]2 | [DB][DB][CA]- [CA]2- [CA]/ z/ | %6
w: |||
 [Ec] [Ec]2 [EB] [A=d]2 | [AB] [Ge]2- [Ge]2- [Ge]/ z/ | [Ge] [GB]2 [Gc] [Gd]2 | %9
w: |||
 [Gd][Gd][Ac]- [Ac]2- [Ac]/ z/ | [Ec] [=Ec]2 [EG] [Ec]2 | [=EB] [FA]2- [FA]2- [FA]/ z/ | %12
w: |||
 [FA] [FA]2 [FA] [FA]2 | [DF][DF][CE]- [CE]2- [CE]/ z/ | [CA] [Ec]2 [Ec] [Ec]2 | %15
w: |||
 [DB] [CA]2- [CA]2- [CA]/ z/ | [Ac] [Ae]2 [Ae] [Ae]2 | [Ac][GB][EA]- [EA]2- [EA]/ z/ | %18
w: |||
 [Ac] [Ae]2 [Ae] [Ae]2 | [Ac] [GB]2- [GB]2- [GB]/ z/ | [DE] [Ec]2 [Ec] [Ec]2 | %21
w: |||
 [_Ge][Fe][Fd]- [Fd]2- [Fd]/ z/ | [FB] [EA]2 [Ec] [Ec]2 | [DB] [CA]2- [CA]3- | [CA]3 z3 |] %25
w: ||||
V:2
 E, [A,,A,]2 [A,,A,] [A,,A,]2 | [E,G,][E,G,][A,,E,]- [A,,E,]2- [A,,E,]/ z/ | %2
 [A,,E,] [D,F,]2 [D,F,] [D,F,]2 | [D,A,] [A,,A,]2- [A,,A,]2- [A,,A,]/ z/ | %4
 [A,,A,] [A,,A,]2 [A,,A,] [A,,A,]2 | [E,G,][E,G,][A,,E,]- [A,,E,]2- [A,,E,]/ z/ | %6
 [A,,A,] [B,,G,]2 [B,,G,] [B,,F,]2 | [B,,B,] [E,B,]2- [E,B,]2- [E,B,]/ z/ | %8
 [E,B,] [E,D]2 [E,C] [E,B,]2 | [E,B,][E,B,]A,- A,2- A,/ z/ | [A,,A,] [C,G,]2 [C,G,] [C,C]2 | %11
 [C,C] [F,C]2- [F,C]2- [F,C]/ z/ | [F,C] [D,D]2 [D,D] [D,D]2 | %13
 [D,A,][A,,A,][A,,A,]- [A,,A,]2- [A,,A,]/ z/ | [A,,A,] [E,A,]2 [E,A,] [E,A,]2 | %15
 [E,G,] [A,,A,]2- [A,,A,]2- [A,,A,]/ z/ | A, [A,C]2 [A,C] [A,C]2 | %17
 [A,E][E,D][A,C]- [A,C]2- [A,C]/ z/ | [A,E] [A,C]2 [A,C] [A,C]2 | [A,E] [E,E]2- [E,E]2- [E,E]/ z/ | %20
 [E,G,] [A,,A,]2 [A,,A,] [A,,A,]2 | [C,A,][D,A,][D,A,]- [D,A,]2- [D,A,]/ z/ | %22
 [D,D] [E,C]2 [E,A,] [E,A,]2 | [E,G,] [A,,A,]2- [A,,A,]3- | [A,,A,]3 z3 |] %25

